; HEADER_BLOCK_START
; generated by Creality_Print V6.3.1.3548 on 2026-03-10 at 19:28:35
; total layer number: 150
; filament_density: 1.24
; filament_diameter: 1.75
; max_z_height: 24.20
; creality_uuid: 16fdb92c-b654-4f0a-bf72-313331e9371e
; HEADER_BLOCK_END

; MINX = 27.35
; MINY = 59.15
; MINZ = 0.00
; MAXX = 192.65
; MAXY = 160.85
; MAXZ = 24.30

; multicolor_method = 0 
; THUMBNAIL_BLOCK_START

;
; THUMBNAIL_BLOCK_END

; THUMBNAIL_BLOCK_START

;
; THUMBNAIL_BLOCK_END

; external perimeters extrusion width = 0.42mm
; perimeters extrusion width = 0.45mm
; infill extrusion width = 0.45mm
; solid infill extrusion width = 0.42mm
; top infill extrusion width = 0.42mm
; support material extrusion width = 0.42mm
; first layer extrusion width = 0.50mm

; EXECUTABLE_BLOCK_START
EXCLUDE_OBJECT_DEFINE NAME=StructureTwo.stl_id_0_copy_0 CENTER=110,110 POLYGON=[[27.347,63.773],[27.417,63.601],[31.795,59.223],[31.967,59.153],[188.133,59.153],[192.583,63.601],[192.653,63.773],[192.653,156.225],[192.583,156.395],[188.203,160.775],[188.031,160.847],[31.967,160.847],[31.795,160.775],[27.417,156.395],[27.347,156.225],[27.347,63.773]]
M73 P0 R102
M106 S0
M106 P2 S0
; max_print_temp = 50,220
;TYPE:Custom
START_PRINT EXTRUDER_TEMP=220 BED_TEMP=50
T0
M204 S2000
M104 S220
G1 Z3 F600
M83
G92 E0
G1 Z1 F600
G90
G21
M83 ; use relative distances for extrusion
G1 E-.8 F2100
G1 Z.2 F30000
M106 S0
;LAYER_CHANGE
;Z:0.2
;HEIGHT:0.2
;BEFORE_LAYER_CHANGE
;0.2
G92 E0

;AFTER_LAYER_CHANGE
;0.2
;_SET_FAN_SPEED_CHANGING_LAYER
SET_VELOCITY_LIMIT ACCEL=1000 ACCEL_TO_DECEL=1000
SET_VELOCITY_LIMIT SQUARE_CORNER_VELOCITY=6
; printing object StructureTwo.stl id:0 copy 0
EXCLUDE_OBJECT_START NAME=StructureTwo.stl_id_0_copy_0
G1 X114.04 Y83.185 Z.6 F30000
G1 Z.2
G1 E.8 F2100
;TYPE:Support
;WIDTH:0.5
G1 F3600
G1 X114.304 Y83.449 E.01346
G1 X117.189 Y83.449 E.10418
G1 X117.189 Y136.549 E1.91723
G1 X114.265 Y136.549 E.10555
G1 X114.002 Y136.813 E.01348
G1 X114.01 Y140.709 E.14067
G1 X108.062 Y140.709 E.21477
G1 X108.062 Y79.291 E2.21758
G1 X114.04 Y79.291 E.21586
G1 X114.04 Y83.117 E.13814
G1 X116.602 Y136.343 F30000
G1 F3600
G1 X116.602 Y83.86 E1.89495
G1 X116.094 Y83.86 E.01834
G1 X116.094 Y136.138 E1.88752
G1 X115.587 Y136.138 E.01834
G1 X115.587 Y83.86 E1.88752
G1 X115.079 Y83.86 E.01834
G1 X115.079 Y136.138 E1.88752
G1 X114.571 Y136.138 E.01834
G1 X114.571 Y83.86 E1.88752
G1 X114.063 Y83.79 E.01851
G1 X114.063 Y136.17 E1.89121
G1 X113.59 Y136.644 E.02417
G1 X113.555 Y140.298 E.13195
G1 X113.555 Y79.702 E2.18787
G1 X113.047 Y79.702 E.01834
G1 X113.047 Y140.298 E2.18787
G1 X112.539 Y140.298 E.01834
G1 X112.539 Y79.702 E2.18787
G1 X112.031 Y79.702 E.01834
G1 X112.031 Y140.298 E2.18787
G1 X111.524 Y140.298 E.01834
G1 X111.524 Y79.702 E2.18787
G1 X111.016 Y79.702 E.01834
G1 X111.016 Y140.298 E2.18787
G1 X110.508 Y140.298 E.01834
G1 X110.508 Y79.702 E2.18787
G1 X110 Y79.702 E.01834
G1 X110 Y140.298 E2.18787
G1 X109.492 Y140.298 E.01834
G1 X109.492 Y79.702 E2.18787
G1 X108.984 Y79.702 E.01834
G1 X108.984 Y140.298 E2.18787
G1 X108.476 Y140.298 E.01834
G1 X108.476 Y79.496 E2.1953
G1 E-.64 F2100
;WIPE_START
G1 F3600
G1 X108.476 Y81.496 E-.152
;WIPE_END
G1 E-.008 F2100
G1 X102.917 Y86.726 Z.6 F30000
G1 X31.111 Y154.263 Z.6
G1 Z.2
G1 E.8 F2100
;TYPE:Inner wall
G1 F3600
G1 X31.111 Y65.235 E3.21445
G1 X33.429 Y62.917 E.11834
G1 X59.956 Y62.917 E.95779
G1 X62.273 Y65.231 E.11821
G1 X62.273 Y154.767 E3.23278
G1 X59.961 Y157.079 E.11803
G1 X33.425 Y157.079 E.9581
G1 X31.111 Y154.763 E.11818
G1 X31.111 Y154.303 E.01661
G1 X30.668 Y154.966 F30000
;TYPE:Outer wall
G1 F3600
G1 X30.654 Y154.934 E.00124
G1 X30.654 Y65.064 E3.24486
G1 X30.668 Y65.032 E.00124
G1 X33.226 Y62.474 E.13063
G1 X33.258 Y62.46 E.00124
G1 X60.128 Y62.46 E.97018
G1 X60.158 Y62.473 E.00118
G1 X62.717 Y65.029 E.1306
G1 X62.73 Y65.06 E.00118
G1 X62.73 Y154.938 E3.24515
G1 X62.717 Y154.969 E.00119
G1 X60.163 Y157.523 E.13044
G1 X60.132 Y157.536 E.00119
G1 X33.254 Y157.536 E.97047
G1 X33.223 Y157.523 E.00118
G1 X30.696 Y154.994 E.12909
G1 E-.64 F2100
;WIPE_START
G1 F3600
G1 X30.654 Y154.934 E-.00556
G1 X30.654 Y153.007 E-.14644
;WIPE_END
G1 E-.008 F2100
G1 X32.993 Y145.742 Z.6 F30000
G1 X59.611 Y63.055 Z.6
G1 Z.2
G1 E.8 F2100
;TYPE:Bottom surface
;WIDTH:0.50053
G1 F3600
G1 X61.93 Y65.374 E.11856
G1 X61.93 Y66.021 E.02339
G1 X59.169 Y63.26 E.14112
G1 X58.522 Y63.26 E.02339
G1 X61.93 Y66.668 E.17421
G1 X61.93 Y67.315 E.02339
G1 X57.875 Y63.26 E.20729
G1 X57.228 Y63.26 E.02339
G1 X61.93 Y67.962 E.24037
G1 X61.93 Y68.609 E.02339
G1 X56.581 Y63.26 E.27346
G1 X55.933 Y63.26 E.02339
G1 X61.93 Y69.257 E.30654
G1 X61.93 Y69.904 E.02339
G1 X55.286 Y63.26 E.33962
G1 X54.639 Y63.26 E.02339
G1 X61.93 Y70.551 E.37271
G1 X61.93 Y71.198 E.02339
G1 X53.992 Y63.26 E.40579
G1 X53.345 Y63.26 E.02339
G1 X61.93 Y71.845 E.43887
G1 X61.93 Y72.492 E.02339
G1 X52.698 Y63.26 E.47196
G1 X52.05 Y63.26 E.02339
G1 X61.93 Y73.14 E.50504
G1 X61.93 Y73.787 E.02339
G1 X51.403 Y63.26 E.53812
G1 X50.756 Y63.26 E.02339
G1 X61.93 Y74.434 E.57121
G1 X61.93 Y75.081 E.02339
G1 X50.109 Y63.26 E.60429
G1 X49.462 Y63.26 E.02339
G1 X61.93 Y75.728 E.63737
G1 X61.93 Y76.375 E.02339
G1 X48.815 Y63.26 E.67046
G1 X48.167 Y63.26 E.02339
G1 X61.93 Y77.023 E.70354
G1 X61.93 Y77.67 E.02339
G1 X47.52 Y63.26 E.73662
G1 X46.873 Y63.26 E.02339
G1 X61.93 Y78.317 E.76971
G1 X61.93 Y78.964 E.02339
G1 X46.226 Y63.26 E.80279
G1 X45.579 Y63.26 E.02339
G1 X61.93 Y79.611 E.83587
G1 X61.93 Y80.258 E.02339
G1 X44.932 Y63.26 E.86896
G1 X44.284 Y63.26 E.02339
G1 X61.93 Y80.906 E.90204
G1 X61.93 Y81.553 E.02339
G1 X43.637 Y63.26 E.93512
G1 X42.99 Y63.26 E.02339
G1 X61.93 Y82.2 E.96821
G1 X61.93 Y82.847 E.02339
G1 X42.343 Y63.26 E1.00129
G1 X41.696 Y63.26 E.02339
G1 X61.93 Y83.494 E1.03437
G1 X61.93 Y84.141 E.02339
G1 X41.049 Y63.26 E1.06746
G1 X40.402 Y63.26 E.02339
G1 X61.93 Y84.788 E1.10054
G1 X61.93 Y85.436 E.02339
G1 X39.754 Y63.26 E1.13362
G1 X39.107 Y63.26 E.02339
G1 X61.93 Y86.083 E1.16671
G1 X61.93 Y86.73 E.02339
G1 X38.46 Y63.26 E1.19979
G1 X37.813 Y63.26 E.02339
G1 X61.93 Y87.377 E1.23287
G1 X61.93 Y88.024 E.02339
G1 X37.166 Y63.26 E1.26596
G1 X36.519 Y63.26 E.02339
G1 X61.93 Y88.671 E1.29904
G1 X61.93 Y89.319 E.02339
G1 X35.871 Y63.26 E1.33212
M73 P0 R101
G1 X35.224 Y63.26 E.02339
G1 X61.93 Y89.966 E1.36521
G1 X61.93 Y90.613 E.02339
G1 X34.577 Y63.26 E1.39829
G1 X33.93 Y63.26 E.02339
G1 X61.93 Y91.26 E1.43137
G1 X61.93 Y91.907 E.02339
G1 X33.427 Y63.404 E1.45709
G1 X33.103 Y63.728 E.01654
G1 X61.93 Y92.554 E1.47363
G1 X61.93 Y93.202 E.02339
G1 X32.78 Y64.052 E1.49017
G1 X32.456 Y64.375 E.01654
G1 X61.93 Y93.849 E1.50671
G1 X61.93 Y94.496 E.02339
G1 X32.133 Y64.699 E1.52326
G1 X31.809 Y65.022 E.01654
G1 X61.93 Y95.143 E1.5398
G1 X61.93 Y95.79 E.02339
G1 X31.485 Y65.346 E1.55634
G1 X31.454 Y65.377 E.00159
G1 X31.454 Y65.962 E.02114
G1 X61.93 Y96.437 E1.55793
G1 X61.93 Y97.084 E.02339
G1 X31.454 Y66.609 E1.55793
G1 X31.454 Y67.256 E.02339
G1 X61.93 Y97.732 E1.55793
G1 X61.93 Y98.379 E.02339
G1 X31.454 Y67.903 E1.55793
G1 X31.454 Y68.55 E.02339
G1 X61.93 Y99.026 E1.55793
G1 X61.93 Y99.673 E.02339
G1 X31.454 Y69.198 E1.55793
M73 P1 R101
G1 X31.454 Y69.845 E.02339
G1 X61.93 Y100.32 E1.55793
G1 X61.93 Y100.967 E.02339
G1 X31.454 Y70.492 E1.55793
G1 X31.454 Y71.139 E.02339
G1 X61.93 Y101.615 E1.55793
G1 X61.93 Y102.262 E.02339
G1 X31.454 Y71.786 E1.55793
G1 X31.454 Y72.433 E.02339
G1 X61.93 Y102.909 E1.55793
G1 X61.93 Y103.556 E.02339
G1 X31.454 Y73.081 E1.55793
G1 X31.454 Y73.728 E.02339
G1 X61.93 Y104.203 E1.55793
G1 X61.93 Y104.85 E.02339
G1 X31.454 Y74.375 E1.55793
G1 X31.454 Y75.022 E.02339
G1 X61.93 Y105.498 E1.55793
G1 X61.93 Y106.145 E.02339
G1 X31.454 Y75.669 E1.55793
G1 X31.454 Y76.316 E.02339
G1 X61.93 Y106.792 E1.55793
G1 X61.93 Y107.439 E.02339
G1 X31.454 Y76.964 E1.55793
G1 X31.454 Y77.611 E.02339
G1 X61.93 Y108.086 E1.55793
G1 X61.93 Y108.733 E.02339
G1 X31.454 Y78.258 E1.55793
G1 X31.454 Y78.905 E.02339
G1 X61.93 Y109.38 E1.55793
G1 X61.93 Y110.028 E.02339
G1 X31.454 Y79.552 E1.55793
G1 X31.454 Y80.199 E.02339
;TIME_ELAPSED:59.853004
G1 X61.93 Y110.675 E1.55793
G1 X61.93 Y111.322 E.02339
G1 X31.454 Y80.846 E1.55793
G1 X31.454 Y81.494 E.02339
G1 X61.93 Y111.969 E1.55793
G1 X61.93 Y112.616 E.02339
G1 X31.454 Y82.141 E1.55793
G1 X31.454 Y82.788 E.02339
G1 X61.93 Y113.263 E1.55793
G1 X61.93 Y113.911 E.02339
G1 X31.454 Y83.435 E1.55793
G1 X31.454 Y84.082 E.02339
G1 X61.93 Y114.558 E1.55793
G1 X61.93 Y115.205 E.02339
G1 X31.454 Y84.729 E1.55793
G1 X31.454 Y85.377 E.02339
G1 X61.93 Y115.852 E1.55793
G1 X61.93 Y116.499 E.02339
G1 X31.454 Y86.024 E1.55793
G1 X31.454 Y86.671 E.02339
G1 X61.93 Y117.146 E1.55793
G1 X61.93 Y117.794 E.02339
G1 X31.454 Y87.318 E1.55793
G1 X31.454 Y87.965 E.02339
G1 X61.93 Y118.441 E1.55793
G1 X61.93 Y119.088 E.02339
G1 X31.454 Y88.612 E1.55793
G1 X31.454 Y89.26 E.02339
G1 X61.93 Y119.735 E1.55793
G1 X61.93 Y120.382 E.02339
G1 X31.454 Y89.907 E1.55793
G1 X31.454 Y90.554 E.02339
G1 X61.93 Y121.029 E1.55793
G1 X61.93 Y121.676 E.02339
G1 X31.454 Y91.201 E1.55793
G1 X31.454 Y91.848 E.02339
G1 X61.93 Y122.324 E1.55793
G1 X61.93 Y122.971 E.02339
G1 X31.454 Y92.495 E1.55793
G1 X31.454 Y93.142 E.02339
G1 X61.93 Y123.618 E1.55793
G1 X61.93 Y124.265 E.02339
G1 X31.454 Y93.79 E1.55793
G1 X31.454 Y94.437 E.02339
G1 X61.93 Y124.912 E1.55793
G1 X61.93 Y125.559 E.02339
G1 X31.454 Y95.084 E1.55793
G1 X31.454 Y95.731 E.02339
G1 X61.93 Y126.207 E1.55793
G1 X61.93 Y126.854 E.02339
G1 X31.454 Y96.378 E1.55793
G1 X31.454 Y97.025 E.02339
G1 X61.93 Y127.501 E1.55793
G1 X61.93 Y128.148 E.02339
G1 X31.454 Y97.673 E1.55793
G1 X31.454 Y98.32 E.02339
G1 X61.93 Y128.795 E1.55793
G1 X61.93 Y129.442 E.02339
G1 X31.454 Y98.967 E1.55793
G1 X31.454 Y99.614 E.02339
G1 X61.93 Y130.09 E1.55793
G1 X61.93 Y130.737 E.02339
G1 X31.454 Y100.261 E1.55793
G1 X31.454 Y100.908 E.02339
G1 X61.93 Y131.384 E1.55793
G1 X61.93 Y132.031 E.02339
G1 X31.454 Y101.556 E1.55793
G1 X31.454 Y102.203 E.02339
G1 X61.93 Y132.678 E1.55793
G1 X61.93 Y133.325 E.02339
G1 X31.454 Y102.85 E1.55793
G1 X31.454 Y103.497 E.02339
G1 X61.93 Y133.972 E1.55793
G1 X61.93 Y134.62 E.02339
G1 X31.454 Y104.144 E1.55793
G1 X31.454 Y104.791 E.02339
G1 X61.93 Y135.267 E1.55793
G1 X61.93 Y135.914 E.02339
G1 X31.454 Y105.438 E1.55793
G1 X31.454 Y106.086 E.02339
G1 X61.93 Y136.561 E1.55793
G1 X61.93 Y137.208 E.02339
G1 X31.454 Y106.733 E1.55793
M73 P1 R100
G1 X31.454 Y107.38 E.02339
G1 X61.93 Y137.855 E1.55793
G1 X61.93 Y138.503 E.02339
G1 X31.454 Y108.027 E1.55793
G1 X31.454 Y108.674 E.02339
G1 X61.93 Y139.15 E1.55793
G1 X61.93 Y139.797 E.02339
G1 X31.454 Y109.321 E1.55793
G1 X31.454 Y109.969 E.02339
G1 X61.93 Y140.444 E1.55793
G1 X61.93 Y141.091 E.02339
G1 X31.454 Y110.616 E1.55793
G1 X31.454 Y111.263 E.02339
G1 X61.93 Y141.738 E1.55793
G1 X61.93 Y142.386 E.02339
G1 X31.454 Y111.91 E1.55793
G1 X31.454 Y112.557 E.02339
G1 X61.93 Y143.033 E1.55793
G1 X61.93 Y143.68 E.02339
G1 X31.454 Y113.204 E1.55793
G1 X31.454 Y113.852 E.02339
G1 X61.93 Y144.327 E1.55793
G1 X61.93 Y144.974 E.02339
G1 X31.454 Y114.499 E1.55793
G1 X31.454 Y115.146 E.02339
G1 X61.93 Y145.621 E1.55793
G1 X61.93 Y146.268 E.02339
G1 X31.454 Y115.793 E1.55793
G1 X31.454 Y116.44 E.02339
G1 X61.93 Y146.916 E1.55793
G1 X61.93 Y147.563 E.02339
G1 X31.454 Y117.087 E1.55793
G1 X31.454 Y117.734 E.02339
G1 X61.93 Y148.21 E1.55793
M73 P2 R100
G1 X61.93 Y148.857 E.02339
G1 X31.454 Y118.382 E1.55793
G1 X31.454 Y119.029 E.02339
G1 X61.93 Y149.504 E1.55793
G1 X61.93 Y150.151 E.02339
G1 X31.454 Y119.676 E1.55793
G1 X31.454 Y120.323 E.02339
G1 X61.93 Y150.799 E1.55793
G1 X61.93 Y151.446 E.02339
G1 X31.454 Y120.97 E1.55793
G1 X31.454 Y121.617 E.02339
G1 X61.93 Y152.093 E1.55793
G1 X61.93 Y152.74 E.02339
G1 X31.454 Y122.265 E1.55793
G1 X31.454 Y122.912 E.02339
G1 X61.93 Y153.387 E1.55793
G1 X61.93 Y154.034 E.02339
G1 X31.454 Y123.559 E1.55793
G1 X31.454 Y124.206 E.02339
G1 X61.901 Y154.653 E1.55649
G1 X61.578 Y154.977 E.01654
G1 X31.454 Y124.853 E1.53994
G1 X31.454 Y125.5 E.02339
G1 X61.254 Y155.3 E1.5234
G1 X60.931 Y155.624 E.01654
G1 X31.454 Y126.148 E1.50686
G1 X31.454 Y126.795 E.02339
G1 X60.607 Y155.948 E1.49032
G1 X60.284 Y156.271 E.01654
G1 X31.454 Y127.442 E1.47378
G1 X31.454 Y128.089 E.02339
G1 X59.96 Y156.595 E1.45724
G1 X59.819 Y156.736 E.00721
G1 X59.454 Y156.736 E.0132
G1 X31.454 Y128.736 E1.43136
G1 X31.454 Y129.383 E.02339
G1 X58.807 Y156.736 E1.39828
G1 X58.159 Y156.736 E.02339
G1 X31.454 Y130.031 E1.36519
G1 X31.454 Y130.678 E.02339
G1 X57.512 Y156.736 E1.33211
G1 X56.865 Y156.736 E.02339
G1 X31.454 Y131.325 E1.29903
G1 X31.454 Y131.972 E.02339
G1 X56.218 Y156.736 E1.26594
G1 X55.571 Y156.736 E.02339
G1 X31.454 Y132.619 E1.23286
G1 X31.454 Y133.266 E.02339
G1 X54.924 Y156.736 E1.19978
G1 X54.277 Y156.736 E.02339
G1 X31.454 Y133.913 E1.16669
G1 X31.454 Y134.561 E.02339
G1 X53.629 Y156.736 E1.13361
G1 X52.982 Y156.736 E.02339
G1 X31.454 Y135.208 E1.10053
G1 X31.454 Y135.855 E.02339
G1 X52.335 Y156.736 E1.06744
G1 X51.688 Y156.736 E.02339
G1 X31.454 Y136.502 E1.03436
G1 X31.454 Y137.149 E.02339
G1 X51.041 Y156.736 E1.00128
G1 X50.394 Y156.736 E.02339
G1 X31.454 Y137.796 E.96819
G1 X31.454 Y138.444 E.02339
G1 X49.746 Y156.736 E.93511
G1 X49.099 Y156.736 E.02339
G1 X31.454 Y139.091 E.90203
G1 X31.454 Y139.738 E.02339
G1 X48.452 Y156.736 E.86894
G1 X47.805 Y156.736 E.02339
G1 X31.454 Y140.385 E.83586
G1 X31.454 Y141.032 E.02339
G1 X47.158 Y156.736 E.80278
G1 X46.511 Y156.736 E.02339
G1 X31.454 Y141.679 E.7697
G1 X31.454 Y142.327 E.02339
G1 X45.863 Y156.736 E.73661
G1 X45.216 Y156.736 E.02339
G1 X31.454 Y142.974 E.70353
G1 X31.454 Y143.621 E.02339
G1 X44.569 Y156.736 E.67045
G1 X43.922 Y156.736 E.02339
G1 X31.454 Y144.268 E.63736
G1 X31.454 Y144.915 E.02339
G1 X43.275 Y156.736 E.60428
G1 X42.628 Y156.736 E.02339
G1 X31.454 Y145.562 E.5712
G1 X31.454 Y146.209 E.02339
G1 X41.981 Y156.736 E.53811
G1 X41.333 Y156.736 E.02339
G1 X31.454 Y146.857 E.50503
G1 X31.454 Y147.504 E.02339
G1 X40.686 Y156.736 E.47195
G1 X40.039 Y156.736 E.02339
G1 X31.454 Y148.151 E.43886
G1 X31.454 Y148.798 E.02339
G1 X39.392 Y156.736 E.40578
G1 X38.745 Y156.736 E.02339
G1 X31.454 Y149.445 E.3727
G1 X31.454 Y150.092 E.02339
G1 X38.098 Y156.736 E.33961
G1 X37.45 Y156.736 E.02339
G1 X31.454 Y150.74 E.30653
G1 X31.454 Y151.387 E.02339
G1 X36.803 Y156.736 E.27345
G1 X36.156 Y156.736 E.02339
G1 X31.454 Y152.034 E.24036
G1 X31.454 Y152.681 E.02339
G1 X35.509 Y156.736 E.20728
G1 X34.862 Y156.736 E.02339
G1 X31.454 Y153.328 E.1742
G1 X31.454 Y153.975 E.02339
G1 X34.215 Y156.736 E.14111
G1 X33.567 Y156.736 E.02339
G1 X31.249 Y154.417 E.11854
G1 E-.64 F2100
;WIPE_START
G1 F3600
G1 X32.663 Y155.831 E-.152
;WIPE_END
G1 E-.008 F2100
G1 X40.267 Y155.179 Z.6 F30000
G1 X88.062 Y151.079 Z.6
G1 Z.2
G1 E.8 F2100
;TYPE:Inner wall
;WIDTH:0.5
G1 F3600
G1 X86.375 Y150.914 E.06118
G1 X84.327 Y150.293 E.07728
G1 X82.442 Y149.283 E.0772
G1 X80.788 Y147.926 E.07724
G1 X79.431 Y146.274 E.07721
G1 X78.423 Y144.389 E.07718
G1 X77.802 Y142.341 E.07725
G1 X77.592 Y140.211 E.07729
G1 X77.802 Y138.083 E.07721
G1 X78.423 Y136.035 E.07725
G1 X79.431 Y134.151 E.07717
G1 X80.788 Y132.496 E.07727
G1 X82.443 Y131.139 E.07727
G1 X84.327 Y130.131 E.07717
G1 X86.375 Y129.51 E.07725
G1 X87.929 Y129.357 E.05637
G1 X88.503 Y129.3 E.02084
;TIME_ELAPSED:119.592674
G1 X90.633 Y129.51 E.07729
G1 X92.678 Y130.131 E.07717
G1 X94.565 Y131.139 E.07723
G1 X96.218 Y132.496 E.07722
G1 X97.575 Y134.15 E.07724
G1 X98.585 Y136.035 E.0772
G1 X99.206 Y138.083 E.07728
G1 X99.414 Y140.211 E.07719
G1 X99.206 Y142.341 E.07727
G1 X98.585 Y144.389 E.07728
G1 X97.575 Y146.274 E.07721
G1 X96.218 Y147.926 E.07719
G1 X94.566 Y149.283 E.07719
G1 X92.679 Y150.293 E.07727
G1 X90.633 Y150.914 E.0772
G1 X88.503 Y151.122 E.07727
G1 X88.101 Y151.083 E.01457
G1 X88.491 Y150.662 F30000
;TYPE:Outer wall
G1 F3600
G1 X86.465 Y150.463 E.07352
G1 X84.503 Y149.868 E.07401
G1 X82.698 Y148.901 E.07395
G1 X81.113 Y147.601 E.074
G1 X79.813 Y146.018 E.07396
G1 X78.848 Y144.213 E.07392
G1 X78.253 Y142.251 E.074
G1 X78.051 Y140.211 E.07403
G1 X78.253 Y138.173 E.07396
