; HEADER_BLOCK_START
; generated by Creality_Print V6.3.1.3548 on 2026-03-10 at 10:24:32
; total layer number: 121
; filament_density: 1.24
; filament_diameter: 1.75
; max_z_height: 21.00
; creality_uuid: 5f5104d8-07e9-4185-885c-2e51895a212d
; HEADER_BLOCK_END

; MINX = 75.63
; MINY = 64.00
; MINZ = 0.00
; MAXX = 144.37
; MAXY = 156.00
; MAXZ = 21.00

; multicolor_method = 0 
; THUMBNAIL_BLOCK_START

;
; THUMBNAIL_BLOCK_END

; THUMBNAIL_BLOCK_START

;
; THUMBNAIL_BLOCK_END

; external perimeters extrusion width = 0.42mm
; perimeters extrusion width = 0.45mm
; infill extrusion width = 0.45mm
; solid infill extrusion width = 0.42mm
; top infill extrusion width = 0.42mm
; support material extrusion width = 0.42mm
; first layer extrusion width = 0.50mm

; EXECUTABLE_BLOCK_START
EXCLUDE_OBJECT_DEFINE NAME=StructureOne.stl_id_0_copy_0 CENTER=110,110 POLYGON=[[75.6342,69.2435],[75.6475,68.886],[75.6876,68.5126],[75.7543,68.143],[75.8472,67.7791],[75.9658,67.4227],[76.1096,67.0757],[76.2777,66.7399],[76.4693,66.4169],[76.6835,66.1083],[76.9192,65.8159],[77.1751,65.541],[77.45,65.2851],[77.7424,65.0494],[78.0509,64.8352],[78.3739,64.6436],[78.7098,64.4755],[79.0568,64.3317],[79.4132,64.2131],[79.7771,64.1202],[80.1467,64.0536],[80.5201,64.0134],[80.8776,64.0002],[139.122,64.0002],[139.48,64.0134],[139.853,64.0536],[140.223,64.1202],[140.587,64.2131],[140.943,64.3317],[141.29,64.4755],[141.626,64.6436],[141.949,64.8352],[142.258,65.0494],[142.55,65.2851],[142.825,65.541],[143.081,65.8159],[143.316,66.1083],[143.531,66.4169],[143.722,66.7399],[143.89,67.0757],[144.034,67.4227],[144.153,67.7791],[144.246,68.143],[144.312,68.5126],[144.353,68.886],[144.366,69.2435],[144.366,150.756],[144.353,151.114],[144.312,151.487],[144.246,151.857],[144.153,152.221],[144.034,152.577],[143.89,152.924],[143.722,153.26],[143.531,153.583],[143.316,153.892],[143.081,154.184],[142.825,154.459],[142.55,154.715],[142.258,154.951],[141.949,155.165],[141.626,155.356],[141.29,155.525],[140.943,155.668],[140.587,155.787],[140.223,155.88],[139.853,155.946],[139.48,155.987],[139.122,156],[80.8776,156],[80.5201,155.987],[80.1467,155.946],[79.7771,155.88],[79.4132,155.787],[79.0568,155.668],[78.7098,155.525],[78.3739,155.356],[78.0509,155.165],[77.7424,154.951],[77.45,154.715],[77.1751,154.459],[76.9192,154.184],[76.6835,153.892],[76.4693,153.583],[76.2777,153.26],[76.1096,152.924],[75.9658,152.577],[75.8472,152.221],[75.7543,151.857],[75.6876,151.487],[75.6475,151.114],[75.6342,150.756],[75.6342,69.2435]]
M73 P0 R43
M106 S0
M106 P2 S0
; max_print_temp = 50,220
;TYPE:Custom
START_PRINT EXTRUDER_TEMP=220 BED_TEMP=50
T0
M204 S2000
M104 S220
G1 Z3 F600
M83
G92 E0
G1 Z1 F600
G90
G21
M83 ; use relative distances for extrusion
G1 E-.8 F2100
G1 Z.2 F30000
M106 S0
;LAYER_CHANGE
;Z:0.2
;HEIGHT:0.2
;BEFORE_LAYER_CHANGE
;0.2
G92 E0

;AFTER_LAYER_CHANGE
;0.2
;_SET_FAN_SPEED_CHANGING_LAYER
SET_VELOCITY_LIMIT ACCEL=1000 ACCEL_TO_DECEL=1000
SET_VELOCITY_LIMIT SQUARE_CORNER_VELOCITY=6
; printing object StructureOne.stl id:0 copy 0
EXCLUDE_OBJECT_START NAME=StructureOne.stl_id_0_copy_0
G1 X75.605 Y66.844 Z.6 F30000
G1 Z.2
G1 E.8 F2100
;TYPE:Support interface
;WIDTH:0.42
G1 F3600
G1 X75.475 Y66.844 E.00388
G1 X75.475 Y153.156 E2.57095
G1 X75.794 Y153.156 E.0095
G1 X75.794 Y66.844 E2.57095
G1 X76.671 Y66.844 E.02613
G1 X76.671 Y153.156 E2.57095
G1 X77.548 Y153.156 E.02613
G1 X77.548 Y66.844 E2.57095
G1 X78.352 Y66.844 E.02395
G1 X78.352 Y66.721 E.00365
G1 E-.64 F2100
;WIPE_START
G1 F3600
G1 X78.352 Y66.844 E-.00932
G1 X77.548 Y66.844 E-.06111
G1 X77.548 Y67.917 E-.08158
;WIPE_END
G1 E-.008 F2100
G1 X77.85 Y67.987 Z.6 F30000
G1 Z.2
G1 E.8 F2100
G1 F3600
G1 X77.888 Y67.895 E.00295
G3 X78.425 Y67.07 I3.133 J1.451 E.02945
G1 X78.425 Y63.967 E.09242
G1 X79.302 Y63.967 E.02613
G1 X79.302 Y66.368 E.07152
G1 X79.517 Y66.259 E.00716
G3 X80.179 Y66.037 I1.504 J3.377 E.02085
G1 X80.179 Y63.967 E.06166
G1 X81.056 Y63.967 E.02613
G1 X81.056 Y65.957 E.05928
G1 X81.933 Y65.957 E.02613
G1 X81.933 Y63.967 E.05928
G1 X82.811 Y63.967 E.02613
G1 X82.811 Y65.957 E.05928
G1 X83.688 Y65.957 E.02613
G1 X83.688 Y63.967 E.05928
G1 X84.565 Y63.967 E.02613
G1 X84.565 Y65.957 E.05928
G1 X85.442 Y65.957 E.02613
G1 X85.442 Y63.967 E.05928
G1 X86.319 Y63.967 E.02613
G1 X86.319 Y65.957 E.05928
G1 X87.196 Y65.957 E.02613
G1 X87.196 Y63.967 E.05928
G1 X88.073 Y63.967 E.02613
G1 X88.073 Y65.957 E.05928
G1 X88.95 Y65.957 E.02613
G1 X88.95 Y63.967 E.05928
G1 X89.827 Y63.967 E.02613
G1 X89.827 Y65.957 E.05928
G1 X90.704 Y65.957 E.02613
G1 X90.704 Y63.967 E.05928
G1 X91.581 Y63.967 E.02613
G1 X91.581 Y65.957 E.05928
G1 X92.458 Y65.957 E.02613
G1 X92.458 Y63.967 E.05928
G1 X93.336 Y63.967 E.02613
G1 X93.336 Y65.957 E.05928
G1 X94.213 Y65.957 E.02613
G1 X94.213 Y63.967 E.05928
G1 X95.09 Y63.967 E.02613
G1 X95.09 Y65.957 E.05928
G1 X95.967 Y65.957 E.02613
G1 X95.967 Y63.967 E.05928
G1 X96.844 Y63.967 E.02613
G1 X96.844 Y65.957 E.05928
G1 X97.721 Y65.957 E.02613
G1 X97.721 Y63.967 E.05928
G1 X98.598 Y63.967 E.02613
G1 X98.598 Y65.957 E.05928
G1 X99.475 Y65.957 E.02613
G1 X99.475 Y63.967 E.05928
G1 X100.352 Y63.967 E.02613
G1 X100.352 Y65.957 E.05928
G1 X101.229 Y65.957 E.02613
G1 X101.229 Y63.967 E.05928
G1 X102.106 Y63.967 E.02613
G1 X102.106 Y65.957 E.05928
G1 X102.359 Y65.957 E.00754
G3 X102.983 Y66.017 I-.03 J3.605 E.01869
G1 X102.983 Y63.967 E.06106
G1 X103.86 Y63.967 E.02613
G1 X103.95 Y66.359 E.0713
G3 X104.738 Y66.956 I-1.668 J3.017 E.02955
G1 X104.738 Y63.967 E.08905
G1 X105.615 Y63.967 E.02613
G1 X105.642 Y68.784 E.1435
G3 X105.677 Y69.282 I-3.47 J.499 E.01487
G1 X105.615 Y84.106 E.44157
G1 X106.492 Y84.106 E.02613
G1 X106.492 Y63.967 E.59989
G1 X107.123 Y63.967 E.0188
G1 X107.123 Y84.106 E.59989
G1 X106.68 Y84.106 E.01319
G1 E-.64 F2100
;WIPE_START
G1 F3600
G1 X107.123 Y84.106 E-.03365
G1 X107.123 Y82.549 E-.11835
;WIPE_END
G1 E-.008 F2100
G1 X105.487 Y82.74 Z.6 F30000
G1 Z.2
G1 E.8 F2100
G1 F3600
G3 X104.741 Y82.938 I-1.061 J-2.497 E.02306
G1 X104.738 Y84.106 E.0348
G1 X104.246 Y84.106 E.01465
G1 X104.246 Y83.014 E.03253
G2 X104.431 Y82.994 I-.203 J-2.684 E.00554
G1 X104.552 Y82.972 E.00367
G1 E-.64 F2100
;WIPE_START
G1 F3600
G1 X104.431 Y82.994 E-.00938
G1 X104.246 Y83.014 E-.01412
G1 X104.246 Y84.106 E-.08301
G1 X104.738 Y84.106 E-.03737
G1 X104.738 Y83.999 E-.00812
;WIPE_END
G1 E-.008 F2100
G1 X111.443 Y80.353 Z.6 F30000
G1 X141.575 Y63.967 Z.6
G1 Z.2
G1 E.8 F2100
G1 F3600
G1 X141.575 Y67.07 E.09242
G2 X140.698 Y66.368 I-2.53 J2.263 E.03361
G1 X140.698 Y63.967 E.07152
G1 X139.821 Y63.967 E.02613
G1 X139.821 Y66.037 E.06166
G2 X139.091 Y65.957 I-.725 J3.254 E.0219
G1 X138.944 Y65.957 E.0044
G1 X138.944 Y63.967 E.05928
G1 X138.067 Y63.967 E.02613
G1 X138.067 Y65.957 E.05928
G1 X137.189 Y65.957 E.02613
G1 X137.189 Y63.967 E.05928
G1 X136.312 Y63.967 E.02613
G1 X136.312 Y65.957 E.05928
G1 X135.435 Y65.957 E.02613
G1 X135.435 Y63.967 E.05928
G1 X134.558 Y63.967 E.02613
G1 X134.558 Y65.957 E.05928
G1 X133.681 Y65.957 E.02613
G1 X133.681 Y63.967 E.05928
G1 X132.804 Y63.967 E.02613
G1 X132.804 Y65.957 E.05928
G1 X131.927 Y65.957 E.02613
G1 X131.927 Y63.967 E.05928
G1 X131.05 Y63.967 E.02613
G1 X131.05 Y65.957 E.05928
G1 X130.173 Y65.957 E.02613
G1 X130.173 Y63.967 E.05928
G1 X129.296 Y63.967 E.02613
G1 X129.296 Y65.957 E.05928
G1 X128.419 Y65.957 E.02613
G1 X128.419 Y63.967 E.05928
G1 X127.542 Y63.967 E.02613
G1 X127.542 Y65.957 E.05928
G1 X126.665 Y65.957 E.02613
G1 X126.665 Y63.967 E.05928
G1 X125.787 Y63.967 E.02613
G1 X125.787 Y65.957 E.05928
G1 X124.91 Y65.957 E.02613
G1 X124.91 Y63.967 E.05928
G1 X124.033 Y63.967 E.02613
G1 X124.033 Y65.957 E.05928
G1 X123.156 Y65.957 E.02613
G1 X123.156 Y63.967 E.05928
G1 X122.279 Y63.967 E.02613
G1 X122.279 Y65.957 E.05928
G1 X121.402 Y65.957 E.02613
G1 X121.402 Y63.967 E.05928
G1 X120.525 Y63.967 E.02613
G1 X120.525 Y65.957 E.05928
G1 X119.648 Y65.957 E.02613
G1 X119.648 Y63.967 E.05928
G1 X118.771 Y63.967 E.02613
G1 X118.771 Y65.957 E.05928
G1 X117.894 Y65.957 E.02613
G1 X117.894 Y63.967 E.05928
G1 X117.017 Y63.967 E.02613
G1 X117.017 Y66.017 E.06106
G2 X116.249 Y66.259 I.66 J3.423 E.02404
G1 X116.14 Y66.314 E.00364
G1 X116.14 Y63.967 E.06992
G1 X115.262 Y63.967 E.02613
G1 X115.262 Y66.956 E.08905
G2 X114.725 Y67.684 I2.522 J2.426 E.02704
G1 X114.687 Y67.759 E.0025
G1 E-.64 F2100
;WIPE_START
G1 F3600
G1 X114.725 Y67.684 E-.00638
G1 X115.262 Y66.956 E-.06879
G1 X115.262 Y65.945 E-.07683
;WIPE_END
G1 E-.008 F2100
G1 X113.32 Y63.967 Z.6 F30000
G1 Z.2
G1 E.8 F2100
G1 F3600
G1 X112.877 Y63.967 E.01319
G1 X112.877 Y156.033 E2.74235
G1 X113.508 Y156.033 E.0188
G1 X113.508 Y63.967 E2.74235
G1 X114.385 Y63.967 E.02613
G1 X114.358 Y68.784 E.1435
G2 X114.323 Y69.282 I3.47 J.499 E.01487
G1 X114.323 Y150.725 E2.42592
G3 X114.385 Y156.033 I-50.341 J3.246 E.15819
G1 X115.262 Y156.033 E.02613
G1 X115.287 Y153.07 E.08828
G2 X116.14 Y153.686 I2.387 J-2.405 E.03148
G1 X116.14 Y156.033 E.06992
G1 X117.017 Y156.033 E.02613
G1 X117.017 Y153.983 E.06106
G1 X117.15 Y154.007 E.00405
G2 X117.894 Y154.043 I.622 J-5.206 E.02219
G1 X117.894 Y156.033 E.05928
G1 X118.771 Y156.033 E.02613
G1 X118.771 Y154.043 E.05928
G1 X119.648 Y154.043 E.02613
G1 X119.648 Y156.033 E.05928
G1 X120.525 Y156.033 E.02613
G1 X120.525 Y154.043 E.05928
G1 X121.402 Y154.043 E.02613
G1 X121.402 Y156.033 E.05928
G1 X122.279 Y156.033 E.02613
G1 X122.279 Y154.043 E.05928
G1 X123.156 Y154.043 E.02613
G1 X123.156 Y156.033 E.05928
G1 X124.033 Y156.033 E.02613
G1 X124.033 Y154.043 E.05928
G1 X124.91 Y154.043 E.02613
G1 X124.91 Y156.033 E.05928
G1 X125.787 Y156.033 E.02613
G1 X125.787 Y154.043 E.05928
G1 X126.664 Y154.043 E.02613
G1 X126.664 Y156.033 E.05928
G1 X127.542 Y156.033 E.02613
G1 X127.542 Y154.043 E.05928
G1 X128.419 Y154.043 E.02613
G1 X128.419 Y156.033 E.05928
G1 X129.296 Y156.033 E.02613
G1 X129.296 Y154.043 E.05928
G1 X130.173 Y154.043 E.02613
G1 X130.173 Y156.033 E.05928
G1 X131.05 Y156.033 E.02613
G1 X131.05 Y154.043 E.05928
G1 X131.927 Y154.043 E.02613
G1 X131.927 Y156.033 E.05928
G1 X132.804 Y156.033 E.02613
G1 X132.804 Y154.043 E.05928
G1 X133.681 Y154.043 E.02613
M73 P1 R43
G1 X133.681 Y156.033 E.05928
G1 X134.558 Y156.033 E.02613
G1 X134.558 Y154.043 E.05928
G1 X135.435 Y154.043 E.02613
G1 X135.435 Y156.033 E.05928
G1 X136.312 Y156.033 E.02613
G1 X136.312 Y154.043 E.05928
G1 X137.189 Y154.043 E.02613
G1 X137.189 Y156.033 E.05928
G1 X138.067 Y156.033 E.02613
G1 X138.067 Y154.043 E.05928
G1 X138.944 Y154.043 E.02613
G1 X138.944 Y156.033 E.05928
G1 X139.821 Y156.033 E.02613
G1 X139.821 Y153.963 E.06166
G2 X140.698 Y153.632 I-.781 J-3.397 E.02801
G1 X140.698 Y156.033 E.07152
G1 X141.575 Y156.033 E.02613
G1 X141.597 Y152.907 E.09312
G2 X142.15 Y152.013 I-2.552 J-2.199 E.03146
G1 E-.64 F2100
;WIPE_START
G1 F3600
G1 X141.597 Y152.907 E-.07993
G1 X141.59 Y153.855 E-.07207
;WIPE_END
G1 E-.008 F2100
G1 X141.648 Y153.279 Z.6 F30000
G1 Z.2
G1 E.8 F2100
G1 F3600
G1 X141.648 Y153.156 E.00365
G1 X142.452 Y153.156 E.02395
G1 X142.452 Y66.844 E2.57095
G1 X143.329 Y66.844 E.02613
G1 X143.329 Y153.156 E2.57095
G1 X144.206 Y153.156 E.02613
G1 X144.206 Y66.844 E2.57095
G1 X144.525 Y66.844 E.0095
G1 X144.525 Y153.156 E2.57095
G1 X144.395 Y153.156 E.00388
G1 E-.64 F2100
;WIPE_START
G1 F3600
G1 X144.525 Y153.156 E-.00991
G1 X144.525 Y151.287 E-.14209
;WIPE_END
G1 E-.008 F2100
G1 X137.265 Y148.93 Z.6 F30000
G1 X111.938 Y140.709 Z.6
G1 Z.2
G1 E.8 F2100
;TYPE:Support
;WIDTH:0.5
G1 F3600
G1 X107.562 Y140.709 E.15803
G1 X107.562 Y135.455 E.18971
G1 X103.807 Y135.455 E.13556
G1 X103.807 Y137.05 E.05759
G1 X102.307 Y137.05 E.05415
G1 X102.307 Y82.95 E1.95334
G1 X103.807 Y82.95 E.05415
G1 X103.807 Y84.545 E.05759
G1 X107.562 Y84.545 E.13556
G1 X107.562 Y79.291 E.18971
G1 X111.938 Y79.291 E.15803
G1 X111.938 Y140.641 E2.2151
G1 X111.524 Y140.504 F30000
M73 P1 R42
G1 F3600
G1 X111.524 Y79.702 E2.1953
G1 X111.016 Y79.702 E.01834
G1 X111.016 Y140.298 E2.18787
G1 X110.508 Y140.298 E.01834
G1 X110.508 Y79.702 E2.18787
G1 X110 Y79.702 E.01834
G1 X110 Y140.298 E2.18787
G1 X109.492 Y140.298 E.01834
G1 X109.492 Y79.702 E2.18787
G1 X108.984 Y79.702 E.01834
G1 X108.984 Y140.298 E2.18787
G1 X108.476 Y140.298 E.01834
G1 X108.476 Y79.702 E2.18787
G1 X107.973 Y79.702 E.01818
G1 X107.969 Y135.044 E1.99816
G1 X107.461 Y135.044 E.01834
G1 X107.461 Y84.956 E1.80846
G1 X106.953 Y84.956 E.01834
G1 X106.953 Y135.044 E1.80846
G1 X106.445 Y135.044 E.01834
G1 X106.445 Y84.956 E1.80846
G1 X105.937 Y84.956 E.01834
G1 X105.937 Y135.044 E1.80846
G1 X105.429 Y135.044 E.01834
G1 X105.429 Y84.956 E1.80846
G1 X104.921 Y84.956 E.01834
G1 X104.921 Y135.044 E1.80846
M73 P2 R42
G1 X104.413 Y135.044 E.01834
G1 X104.413 Y84.956 E1.80846
G1 X103.906 Y84.956 E.01834
G1 X103.906 Y135.044 E1.80846
G1 X103.398 Y135.044 E.01834
G1 X103.396 Y83.361 E1.86604
G1 X102.89 Y83.361 E.01827
G1 X102.89 Y136.844 E1.93106
G1 E-.64 F2100
;WIPE_START
G1 F3600
G1 X102.89 Y134.844 E-.152
;WIPE_END
G1 E-.008 F2100
G1 X104.549 Y135.894 Z.6 F30000
G1 Z.2
G1 E.8 F2100
;TYPE:Support interface
;WIDTH:0.42
G1 F3600
G1 X104.246 Y135.894 E.00903
G1 X104.246 Y136.986 E.03253
G3 X104.738 Y137.061 I-.759 J6.589 E.01482
G1 X104.738 Y135.894 E.03478
G1 X105.615 Y135.894 E.02613
G1 X105.677 Y137.479 E.04726
G3 X105.677 Y150.725 I-361.258 J6.619 E.39458
G2 X105.615 Y156.033 I50.336 J3.246 E.15819
G1 X106.492 Y156.033 E.02613
G1 X106.492 Y135.894 E.59989
G1 X107.123 Y135.894 E.0188
G1 X107.123 Y156.033 E.59989
G1 X106.68 Y156.033 E.01319
G1 E-.64 F2100
;WIPE_START
G1 F3600
G1 X107.123 Y156.033 E-.03365
G1 X107.123 Y154.476 E-.11835
;WIPE_END
G1 E-.008 F2100
G1 X105.313 Y152.241 Z.6 F30000
G1 Z.2
G1 E.8 F2100
G1 F3600
G3 X104.865 Y152.907 I-3.1 J-1.6 E.02398
G1 X104.738 Y153.044 E.00556
G1 X104.738 Y156.033 E.08905
G1 X103.86 Y156.033 E.02613
G1 X103.86 Y153.686 E.06992
G3 X103.068 Y153.968 I-1.552 J-3.106 E.02511
G1 X102.983 Y156.033 E.06157
G1 X102.106 Y156.033 E.02613
G1 X102.106 Y154.043 E.05928
G1 X101.229 Y154.043 E.02613
G1 X101.229 Y156.033 E.05928
G1 X100.352 Y156.033 E.02613
G1 X100.352 Y154.043 E.05928
G1 X99.475 Y154.043 E.02613
G1 X99.475 Y156.033 E.05928
G1 X98.598 Y156.033 E.02613
G1 X98.598 Y154.043 E.05928
G1 X97.721 Y154.043 E.02613
G1 X97.721 Y156.033 E.05928
G1 X96.844 Y156.033 E.02613
G1 X96.844 Y154.043 E.05928
G1 X95.967 Y154.043 E.02613
G1 X95.967 Y156.033 E.05928
G1 X95.09 Y156.033 E.02613
G1 X95.09 Y154.043 E.05928
G1 X94.213 Y154.043 E.02613
G1 X94.213 Y156.033 E.05928
G1 X93.335 Y156.033 E.02613
G1 X93.335 Y154.043 E.05928
G1 X92.458 Y154.043 E.02613
G1 X92.458 Y156.033 E.05928
G1 X91.581 Y156.033 E.02613
G1 X91.581 Y154.043 E.05928
G1 X90.704 Y154.043 E.02613
G1 X90.704 Y156.033 E.05928
G1 X89.827 Y156.033 E.02613
G1 X89.827 Y154.043 E.05928
G1 X88.95 Y154.043 E.02613
G1 X88.95 Y156.033 E.05928
G1 X88.073 Y156.033 E.02613
G1 X88.073 Y154.043 E.05928
G1 X87.196 Y154.043 E.02613
G1 X87.196 Y156.033 E.05928
G1 X86.319 Y156.033 E.02613
G1 X86.319 Y154.043 E.05928
G1 X85.442 Y154.043 E.02613
G1 X85.442 Y156.033 E.05928
G1 X84.565 Y156.033 E.02613
G1 X84.565 Y154.043 E.05928
G1 X83.688 Y154.043 E.02613
G1 X83.688 Y156.033 E.05928
G1 X82.811 Y156.033 E.02613
G1 X82.811 Y154.043 E.05928
G1 X81.933 Y154.043 E.02613
G1 X81.933 Y156.033 E.05928
G1 X81.056 Y156.033 E.02613
G1 X81.056 Y154.043 E.05928
G3 X80.187 Y153.965 I-.091 J-3.875 E.02607
G1 X80.179 Y156.033 E.06161
G1 X79.302 Y156.033 E.02613
G1 X79.302 Y153.632 E.07152
G3 X78.555 Y153.07 I1.73 J-3.076 E.02795
G1 X78.425 Y152.93 E.00566
G1 X78.425 Y156.033 E.09242
G1 E-.64 F2100
;WIPE_START
G1 F3600
G1 X78.425 Y154.033 E-.152
;WIPE_END
G1 E-.008 F2100
G1 X85.928 Y152.63 Z.6 F30000
G1 X120.052 Y146.249 Z.6
G1 Z.2
G1 E.8 F2100
;TYPE:Inner wall
;WIDTH:0.5
G1 F3600
G1 X118.919 Y144.87 E.06444
G1 X117.87 Y142.905 E.08041
;TIME_ELAPSED:59.824142
G1 X117.223 Y140.774 E.08042
G1 X117.005 Y138.558 E.08041
G1 X117.223 Y136.341 E.08041
G1 X117.87 Y134.21 E.08042
G1 X118.919 Y132.246 E.08041
G1 X120.332 Y130.524 E.08042
G1 X122.054 Y129.111 E.08041
G1 X124.018 Y128.061 E.08041
G1 X126.149 Y127.415 E.08042
G1 X127.872 Y127.245 E.0625
